packages/icons/svg/24/UploadAlt.svg

<svg width="24" height="24" viewBox="0 0 24 24" fill="none" xmlns="http://www.w3.org/2000/svg">
<path fill-rule="evenodd" clip-rule="evenodd" d="M6.5 19.125C4.01472 19.125 2 17.1103 2 14.625C2 12.2661 3.81501 10.3311 6.12469 10.1404C6.9392 7.17703 9.65287 5 12.875 5C16.6015 5 19.6478 7.91185 19.8629 11.5844C21.1337 12.2544 22 13.5885 22 15.125C22 17.3341 20.2091 19.125 18 19.125H6.5ZM14.7881 16.5V14.1111H17.0683C17.5072 14.1111 17.7331 13.5861 17.4314 13.2674L12.4445 8L7.39664 13.2651C7.09187 13.583 7.31717 14.1111 7.75756 14.1111H10.1009V16.5C10.1009 16.7761 10.3248 17 10.6009 17H14.2881C14.5642 17 14.7881 16.7761 14.7881 16.5Z" fill="#858585"/>
</svg>

<svg width="24" height="24" fill="none" xmlns="http://www.w3.org/2000/svg" viewBox="0 0 24 24"><path fill-rule="evenodd" clip-rule="evenodd" d="M6.5 19.125a4.5 4.5 0 01-.375-8.985 7 7 0 0113.738 1.444A4 4 0 0118 19.124H6.5zm8.288-2.625v-2.389h2.28a.5.5 0 00.363-.844L12.444 8l-5.047 5.265a.5.5 0 00.36.846h2.344V16.5a.5.5 0 00.5.5h3.687a.5.5 0 00.5-.5z" fill="currentColor"></path></svg>
